X:251
T: ALLEMAL KANN MAN NIT LUSTIG SEIN
N: E1390
O: Europa, Mitteleuropa, Deutschland, Schwaben
R: Staende -, Soldaten - Lied, Scherz
M: 3/8
L: 1/16
K: G
 | G3GG2 | B2A2G2 | d3DD2 | d3DD2 |
G3GG2 | B2A2G2 | d6- | d4z2 |
c3de2 | e2d2c2 | B2Bcd2 | A2ABc2 |
G3GG2 | F2E2F2 | G6- | G4z2 |
c3de2 | e2d2c2 | B2Bcd2 | A2ABc2 |
G3GG2 | F2E2F2 | G6- | G4z2

@@@ Tune index: 4935
